X: 6
T: The Humours Of Trim
R: jig
M: 6/8
L: 1/8
K: Dmaj
|: ~F3 DED | D2d cAG | ~F3 DED | A2F GFE |
~F3 DED | D2d cAG | ~F3 ~G3 | A2F GFE : |
|: D2d cAd | cAd cAG | F2d cAF | A2F GFE |
D2d cde | fed cAG | ~F3 ~G3 | A2F GFE :|


Tune 88	Setting 26363

